X: 17249
T: Herbert Smith's
R: polka
M: 2/4
K: Gmajor
|:d/c/|Bd Bd|B/B/B/B/ Bd/c/|Bd Bd|c/c/c/c/ ce/d/|
ce ce|f/f/f/f/ f>g|1 ag fe|d/d/d/d/ d:|2 ag fe/f/|g2 g||
K: D Major
|:z|AB/c/ de|fg a2|a/a/a/a/ aa/g/|fa d2|
AB/c/ de|fg a2|a2 e2|1 a2 z:|2 a2 d||
K: G Major
|:e/f/|gf ed|B/B/B/B/ Bd|gf ed|c/c/c/c/ cd|
gf ed|f/f/f/f/ fg|ag fe/f/|1 g2 d:|2 g2- g||

